svgs/duotone/circle-k.svg

<svg xmlns="http://www.w3.org/2000/svg" viewBox="0 0 512 512"><!--! Font Awesome Pro 6.3.0 by @fontawesome - https://fontawesome.com License - https://fontawesome.com/license (Commercial License) Copyright 2023 Fonticons, Inc. --><defs><style>.fa-secondary{opacity:.4}</style></defs><path class="fa-primary" d="M345.1 135.2c-9.266-9.422-24.48-9.547-33.94-.25L208 236.5V152C208 138.8 197.3 128 184 128S160 138.8 160 152v208C160 373.3 170.8 384 184 384s24-10.75 24-24V303.9l30.89-30.42l69.38 100.2C312.9 380.4 320.4 384 328 384c4.719 0 9.484-1.375 13.64-4.266c10.91-7.547 13.62-22.5 6.078-33.39l-72-104c-.7324-1.057-1.805-1.662-2.666-2.564l71.78-70.69C354.3 159.8 354.4 144.6 345.1 135.2z"/><path class="fa-secondary" d="M256 0C114.6 0 0 114.6 0 256s114.6 256 256 256s256-114.6 256-256S397.4 0 256 0zM275.7 242.3l72 104c7.547 10.89 4.828 25.84-6.078 33.39C337.5 382.6 332.7 384 328 384c-7.609 0-15.09-3.609-19.75-10.34L238.9 273.4L208 303.9V360C208 373.3 197.3 384 184 384S160 373.3 160 360v-208C160 138.8 170.8 128 184 128S208 138.8 208 152v84.5l103.2-101.6c9.453-9.297 24.67-9.172 33.94 .25c9.312 9.453 9.188 24.64-.25 33.94l-71.78 70.69C273.9 240.7 275 241.3 275.7 242.3z"/></svg>

<svg xmlns="http://www.w3.org/2000/svg" viewBox="0 0 512 512"><!-- Font Awesome Pro 6.0.0-alpha2 by @fontawesome - https://fontawesome.com License - https://fontawesome.com/license (Commercial License) --><defs><style>.fa-secondary{opacity:.4}</style></defs><path d="M256 16C123.451 16 16 123.451 16 256S123.451 496 256 496S496 388.549 496 256S388.549 16 256 16ZM275.734 242.344L347.734 346.344C355.281 357.234 352.562 372.188 341.656 379.734C337.5 382.625 332.734 384 328.016 384C320.406 384 312.922 380.391 308.266 373.656L238.887 273.441L208 303.859V360C208 373.25 197.25 384 184 384S160 373.25 160 360V152C160 138.75 170.75 128 184 128S208 138.75 208 152V236.496L311.156 134.906C320.609 125.609 335.828 125.734 345.094 135.156C354.406 144.609 354.281 159.797 344.844 169.094L273.068 239.779C273.93 240.682 275.002 241.287 275.734 242.344Z" class="fa-secondary"/><path d="M345.094 135.156C335.828 125.734 320.609 125.609 311.156 134.906L208 236.496V152C208 138.75 197.25 128 184 128S160 138.75 160 152V360C160 373.25 170.75 384 184 384S208 373.25 208 360V303.859L238.887 273.441L308.266 373.656C312.922 380.391 320.406 384 328.016 384C332.734 384 337.5 382.625 341.656 379.734C352.562 372.188 355.281 357.234 347.734 346.344L275.734 242.344C275.002 241.287 273.93 240.682 273.068 239.779L344.844 169.094C354.281 159.797 354.406 144.609 345.094 135.156Z" class="fa-primary"/></svg>
